assets/vectors/8.svg

<?xml version="1.0" encoding="UTF-8" standalone="no"?>
<!DOCTYPE svg PUBLIC "-//W3C//DTD SVG 1.1//EN" "http://www.w3.org/Graphics/SVG/1.1/DTD/svg11.dtd">
<svg width="250px" height="250px" version="1.1" xmlns="http://www.w3.org/2000/svg" xmlns:xlink="http://www.w3.org/1999/xlink" xml:space="preserve" xmlns:serif="http://www.serif.com/" style="fill-rule:evenodd;clip-rule:evenodd;stroke-linecap:round;stroke-linejoin:round;stroke-miterlimit:1.5;">
    <rect id="Artboard" x="-750" y="-250" width="999.991" height="1000" style="fill:none;"/>
    <g id="background">
    </g>
    <path id="OSTROV" d="M-596.31,357.991C-624.685,304.043 -752.239,260.97 -744.677,18.462C-739.722,-140.443 -638.69,-211.829 -563.043,-210.805C-517.375,-210.186 -461.162,-203.187 -320.04,-143.467C-220.938,-101.53 -174.77,-90.82 -146.093,-101.679C-75.757,-128.314 -67.13,-139.33 -28.422,-159.138C7.384,-177.461 44.527,-206.154 71.957,-217.137C154.286,-250.1 296.284,-214.656 210,-57.045C188.336,-17.473 207.089,62.674 183.144,231.357C156.159,421.461 104.682,366.792 95,411.357C88.009,443.537 150.472,555.911 110,631.357C57.077,730.013 -86.582,695.756 -133.043,692.863C-202.963,688.51 -313.903,774.886 -413.043,742.863C-626.293,673.984 -533.641,477.142 -596.31,357.991Z" style="fill:#e2e1bf;"/>
    <path id="OSTROV1" serif:id="OSTROV" d="M-571.049,316.685C-619.073,290.278 -698.806,261.876 -730,118.071C-760.788,-23.863 -696.46,-168.925 -571.049,-204.153C-529.659,-215.779 -443.661,-196.664 -310.642,-142.034C-217.231,-103.671 -173.713,-93.874 -146.683,-103.808C-80.387,-128.173 42.79,-201.346 110.084,-207.008C160.37,-211.238 237.811,-186.69 205.084,-88.398C201.933,-78.933 190.446,-46.796 190.084,-31.712C188.105,50.845 174.692,217.81 162.587,282.477C140.392,401.057 45.013,352.078 72.916,431.357C95.701,496.096 127.605,590.415 75,641.357C-8.151,721.881 -106.97,662.249 -132.216,660.724C-198.121,656.742 -326.719,739.181 -420.253,710.149C-513.787,681.117 -530.278,533.003 -527.648,483.926C-525.017,434.849 -532.333,337.973 -571.049,316.685Z" style="fill:#589765;"/>
    <path d="M-496.095,-3.472C-526.075,-45.422 -488.196,-202.947 -612.908,-137.839C-690.841,-97.152 -742.123,37.801 -718.168,119.234C-649.223,353.603 -520.558,255.153 -517.365,361.528C-511.985,540.746 -515.343,662.637 -397.365,691.087C-347.004,703.231 -255.758,692.058 -219.392,627.748C-200.055,593.552 -121.566,521.669 -47.365,599.46C-24.885,623.028 11.478,632.035 37.055,610C65.287,585.677 59.653,545.206 44.345,525C21.902,495.375 -1.766,460.258 7.635,416.659C28.818,318.426 87.367,354.15 108.066,308.83C152.476,211.597 -52.047,173.8 -122.365,234.659C-214.199,314.139 -410.951,115.669 -496.095,-3.472Z" style="fill:#8dcf86;"/>
    <g id="pole">
    </g>
    <g id="kere">
    </g>
    <g>
        <g>
            <g id="strom">
            </g>
            <g id="strom1" serif:id="strom">
            </g>
            <g id="strom2" serif:id="strom">
            </g>
            <g id="strom3" serif:id="strom">
            </g>
            <g id="strom4" serif:id="strom">
            </g>
            <g id="strom5" serif:id="strom">
            </g>
            <g id="strom6" serif:id="strom">
            </g>
            <g id="strom7" serif:id="strom">
                <g>
                    <path d="M3.791,-1.804C5.388,-1.83 6.701,-1.941 7.857,-1.186C11.271,1.043 13.166,6.943 13.166,12.989C13.166,19.404 10.752,26.565 6.623,27.602C5.303,27.934 5.123,27.653 4.083,27.653C-0.93,27.653 -5,21.083 -5,12.989C-5,4.896 -1.221,-1.725 3.791,-1.804Z" style="fill:#3b7847;"/>
                    <ellipse cx="6.023" cy="12.989" rx="7.143" ry="14.664" style="fill:#4db343;"/>
                </g>
                <path d="M4.083,20.002L4.083,38.175" style="fill:none;stroke:#4c4c4c;stroke-width:4px;"/>
            </g>
            <g id="strom8" serif:id="strom">
            </g>
            <g id="strom9" serif:id="strom">
            </g>
            <g id="strom10" serif:id="strom">
            </g>
            <g id="strom11" serif:id="strom">
            </g>
            <g id="strom12" serif:id="strom">
            </g>
            <g id="strom13" serif:id="strom">
            </g>
            <g id="strom14" serif:id="strom">
            </g>
        </g>
    </g>
    <g id="male-cesty" serif:id="male cesty">
        <g id="les">
        </g>
        <path d="M10.236,135C8.112,133.424 -54.96,138.303 -48.759,80C-46.169,55.647 -22.014,37.992 10,38.708" style="fill:none;stroke:#2d5836;stroke-width:4px;"/>
        <path d="M-23.536,-5.598C-22.459,-6.459 -21.688,-37.304 13.165,-28.382C27.723,-24.655 36.964,-11.235 34.644,4.096" style="fill:none;stroke:#2d5836;stroke-width:4px;"/>
        <path d="M-60,31.877C-39.52,63.415 -48.852,91.147 -60,106.629C-83.098,138.708 -130.545,132.719 -145,124.681C-171.597,109.891 -231.713,82.572 -236.176,134.186C-238.994,166.772 -162.185,173.471 -145,186.822C-113.934,210.958 -120.083,243.9 -120,245C-116.024,297.767 -269.245,343.416 -304.521,180" style="fill:none;stroke:#2d5836;stroke-width:4px;"/>
        <path d="M16.883,243.191C18.727,246.53 78.395,220.387 96.356,270C105.294,294.686 82.013,322.319 65,330C54.216,334.869 -9.029,365.417 -2.806,240" style="fill:none;stroke:#2d5836;stroke-width:4px;"/>
    </g>
    <g id="hory">
    </g>
    <g id="ker">
    </g>
    <g id="ker1" serif:id="ker">
    </g>
    <g id="ker2" serif:id="ker">
    </g>
    <g id="strom15" serif:id="strom">
    </g>
    <g id="strom16" serif:id="strom">
    </g>
    <g id="ker3" serif:id="ker">
    </g>
    <g id="cesty-velke" serif:id="cesty velke">
        <path d="M-290,407.586C-298.648,404.653 -329.983,396.357 -329.983,396.357C-329.983,396.357 -325.565,383.815 -327.976,371.357C-330.787,356.833 -340.46,342.034 -339.983,341.357C-332.086,330.163 -301.319,294.992 -295,286.948C-172.732,131.295 -37.596,290.308 30.017,341.357C57.806,362.338 120.358,351.557 130,300C147.845,204.575 19.733,212.44 10.017,101.357C1.808,7.505 59.765,-36.785 120.017,-48.643C246.517,-73.538 200.386,-209.931 92.374,-186.691C36.476,-174.664 -10.448,-106.123 -22.808,-13.386C-33.524,67.022 -144.706,12.56 -142.185,-22.312" style="fill:none;stroke:#2d5836;stroke-width:18.67px;"/>
    </g>
    <g id="strom17" serif:id="strom">
    </g>
    <g id="strom18" serif:id="strom">
    </g>
    <g id="strom19" serif:id="strom">
    </g>
    <g id="strom20" serif:id="strom">
    </g>
    <g id="stromy">
    </g>
    <g id="namesti">
    </g>
    <g id="smrky">
    </g>
    <g id="listnace">
    </g>
    <g id="lanoka">
    </g>
    <g id="strom21" serif:id="strom">
    </g>
    <g id="satelit">
    </g>
    <g id="domky">
        <g id="D1">
        </g>
        <g id="D7">
        </g>
        <g id="D71" serif:id="D7">
        </g>
        <g id="D72" serif:id="D7">
        </g>
        <g id="D73" serif:id="D7">
        </g>
        <g id="D74" serif:id="D7">
        </g>
        <g id="D75" serif:id="D7">
        </g>
        <g id="D76" serif:id="D7">
        </g>
        <g id="D77" serif:id="D7">
        </g>
        <g id="D78" serif:id="D7">
        </g>
        <g id="D79" serif:id="D7">
        </g>
        <g id="D710" serif:id="D7">
        </g>
        <g id="D711" serif:id="D7">
        </g>
        <g id="D712" serif:id="D7">
        </g>
        <g id="D713" serif:id="D7">
        </g>
        <g id="D714" serif:id="D7">
        </g>
        <g id="D715" serif:id="D7">
        </g>
        <g id="D716" serif:id="D7">
        </g>
        <g id="D2">
        </g>
        <g id="D21" serif:id="D2">
        </g>
        <g id="D10">
        </g>
        <g id="D101" serif:id="D10">
        </g>
        <g id="D102" serif:id="D10">
        </g>
        <g id="D01">
        </g>
    </g>
    <g id="strom22" serif:id="strom">
    </g>
    <g id="strom23" serif:id="strom">
    </g>
    <g id="staba">
        <path d="M18.29,248L18.29,133" style="fill:none;stroke:#000;stroke-width:4px;"/>
        <path d="M-48.71,158.645L-48.71,248L21.29,248L21.29,158.645L-48.71,158.645ZM-20.71,223L-41.71,223L-41.71,243L-20.71,243L-20.71,223ZM14.29,223L-6.71,223L-6.71,243L14.29,243L14.29,223ZM-20.71,193L-41.71,193L-41.71,213L-20.71,213L-20.71,193ZM14.29,193L-6.71,193L-6.71,213L14.29,213L14.29,193ZM-20.71,163.645L-41.71,163.645L-41.71,183.645L-20.71,183.645L-20.71,163.645ZM14.29,163.645L-6.71,163.645L-6.71,183.645L14.29,183.645L14.29,163.645Z" style="fill:#737373;"/>
        <path d="M-28.71,160.645L-28.71,250L21.29,250L21.29,160.645L-28.71,160.645ZM-8.71,225L-23.71,225L-23.71,245L-8.71,245L-8.71,225ZM16.29,225L1.29,225L1.29,245L16.29,245L16.29,225ZM-8.71,195L-23.71,195L-23.71,215L-8.71,215L-8.71,195ZM16.29,195L1.29,195L1.29,215L16.29,215L16.29,195ZM-8.71,165.645L-23.71,165.645L-23.71,185.645L-8.71,185.645L-8.71,165.645ZM16.29,165.645L1.29,165.645L1.29,185.645L16.29,185.645L16.29,165.645Z" style="fill:#d9d9d9;"/>
    </g>
    <g id="chladici-vez" serif:id="chladici vez">
    </g>
    <g id="D22" serif:id="D2">
    </g>
    <g id="D5">
    </g>
    <g id="TOVANA">
    </g>
    <g id="strom24" serif:id="strom">
    </g>
    <g id="strom25" serif:id="strom">
    </g>
    <g id="panelaky">
        <g id="D6">
            <path d="M79.348,310.781L79.348,195L35.8,206.621L35.8,310.781L79.348,310.781Z" style="fill:#d9d9d9;"/>
            <path d="M35.8,310.781L35.8,206.621L16.801,206.621L16.801,310.781L35.8,310.781Z" style="fill:#8c8c8c;"/>
            <path d="M72.414,216.856L72.414,207.391L62.493,207.391L62.493,216.856L72.414,216.856Z" style="fill:#595959;"/>
            <path d="M59.326,216.856L59.326,207.391L49.406,207.391L49.406,216.856L59.326,216.856Z" style="fill:#595959;"/>
            <path d="M72.497,229.106L72.497,219.641L62.577,219.641L62.577,229.106L72.497,229.106Z" style="fill:#595959;"/>
            <path d="M59.409,229.106L59.409,219.641L49.489,219.641L49.489,229.106L59.409,229.106Z" style="fill:#595959;"/>
            <path d="M72.497,241.356L72.497,231.891L62.577,231.891L62.577,241.356L72.497,241.356Z" style="fill:#595959;"/>
            <path d="M59.409,241.356L59.409,231.891L49.489,231.891L49.489,241.356L59.409,241.356Z" style="fill:#595959;"/>
            <path d="M72.497,253.606L72.497,244.141L62.577,244.141L62.577,253.606L72.497,253.606Z" style="fill:#595959;"/>
            <path d="M59.409,253.606L59.409,244.141L49.489,244.141L49.489,253.606L59.409,253.606Z" style="fill:#595959;"/>
            <path d="M16.661,206.761L35.8,206.621L79.348,195L58.376,195L16.661,206.761Z" style="fill:#8c0008;"/>
        </g>
        <g id="D3">
        </g>
        <g id="D9">
        </g>
        <g id="D91" serif:id="D9">
        </g>
        <g id="D92" serif:id="D9">
        </g>
        <g id="D93" serif:id="D9">
        </g>
        <g id="D717" serif:id="D7">
        </g>
    </g>
    <g id="strom26" serif:id="strom">
    </g>
    <g id="strom27" serif:id="strom">
    </g>
    <g id="letiste">
        <path d="M190,-25C190.036,-26.063 165.253,-31.438 143.75,-31.438C76.14,-31.438 21.25,21.063 21.25,85.729C21.25,150.396 79.309,196.292 143.75,202.897C158.582,204.417 171.325,205.253 172.78,205.182C172.904,205.176 173.114,205.186 173.113,205.189C173.104,205.21 178.295,157.713 182.383,105C186.378,53.488 189.263,-3.005 190,-25Z" style="fill:#666;"/>
        <path d="M190,-25C190.036,-26.063 165.253,-31.438 143.75,-31.438C76.14,-31.438 21.25,21.063 21.25,85.729C21.25,150.396 76.689,194.302 143.75,202.897C161.037,205.112 173.119,205.172 173.113,205.189C173.093,205.248 174.33,195.005 174.187,195C69.827,191.398 29.049,136.889 30,85C31.122,23.773 87.426,-42.858 189.625,-15C189.767,-14.961 189.863,-20.91 190,-25Z" style="fill:#8c8c8c;"/>
        <g>
            <rect x="95.895" y="-10.585" width="75.277" height="25" style="fill:#d9d9d9;"/>
            <rect x="76.172" y="-10.585" width="19.723" height="25" style="fill:#8c8c8c;"/>
            <rect x="97.584" y="-5.585" width="4.723" height="14.747" style="fill:#595959;"/>
            <rect x="134.4" y="-5.585" width="4.723" height="14.747" style="fill:#595959;"/>
            <rect x="115.992" y="-5.585" width="4.723" height="14.747" style="fill:#595959;"/>
            <rect x="152.809" y="-5.585" width="4.723" height="14.747" style="fill:#595959;"/>
            <rect x="103.72" y="-5.585" width="4.723" height="14.747" style="fill:#595959;"/>
            <rect x="140.536" y="-5.585" width="4.723" height="14.747" style="fill:#595959;"/>
            <rect x="122.128" y="-5.585" width="4.723" height="14.747" style="fill:#595959;"/>
            <rect x="158.945" y="-5.585" width="4.723" height="14.747" style="fill:#595959;"/>
            <rect x="109.856" y="-5.585" width="4.723" height="14.747" style="fill:#595959;"/>
            <rect x="146.673" y="-5.585" width="4.723" height="14.747" style="fill:#595959;"/>
            <rect x="128.264" y="-5.585" width="4.723" height="14.747" style="fill:#595959;"/>
            <rect x="165.081" y="-5.585" width="4.723" height="14.747" style="fill:#595959;"/>
        </g>
        <rect x="121.583" y="-7.802" width="10.649" height="25" style="fill:#8c8c8c;"/>
        <path d="M135.776,17.198L135.776,-4.963L152.315,-4.963L152.315,17.198L155.809,17.198L155.809,-7.802L132.283,-7.802L132.283,17.198L135.776,17.198Z" style="fill:#fff;"/>
        <g id="letiste1" serif:id="letiste">
            <rect x="60" y="31.274" width="40" height="10" style="fill:#d9d9d9;"/>
            <rect x="40" y="31.274" width="20" height="10" style="fill:#8c8c8c;"/>
            <rect x="65" y="-18.726" width="20" height="50" style="fill:#d9d9d9;"/>
            <rect x="55" y="-18.726" width="10" height="50" style="fill:#8c8c8c;"/>
            <rect x="72.254" y="16.274" width="6.218" height="15" style="fill:#595959;"/>
        </g>
        <g>
            <path d="M60,121.222L180.141,121.222C181.245,121.222 182.141,120.325 182.141,119.222C182.141,118.118 181.245,117.222 180.141,117.222L60,117.222C58.896,117.222 58,118.118 58,119.222C58,120.325 58.896,121.222 60,121.222Z" style="fill:#fff;"/>
            <path d="M63.213,77L183.354,77C184.458,77 185.354,76.104 185.354,75C185.354,73.896 184.458,73 183.354,73L63.213,73C62.11,73 61.213,73.896 61.213,75C61.213,76.104 62.11,77 63.213,77Z" style="fill:#fff;"/>
            <g>
                <path d="M63.213,99.176L75.81,99.176C76.914,99.176 77.81,98.279 77.81,97.176C77.81,96.072 76.914,95.176 75.81,95.176L63.213,95.176C62.11,95.176 61.213,96.072 61.213,97.176C61.213,98.279 62.11,99.176 63.213,99.176Z" style="fill:#fff;"/>
                <path d="M127.009,99.143L139.606,99.143C140.71,99.143 141.606,98.247 141.606,97.143C141.606,96.039 140.71,95.143 139.606,95.143L127.009,95.143C125.905,95.143 125.009,96.039 125.009,97.143C125.009,98.247 125.905,99.143 127.009,99.143Z" style="fill:#fff;"/>
                <path d="M148.274,99.111L160.871,99.111C161.975,99.111 162.871,98.215 162.871,97.111C162.871,96.007 161.975,95.111 160.871,95.111L148.274,95.111C147.171,95.111 146.274,96.007 146.274,97.111C146.274,98.215 147.171,99.111 148.274,99.111Z" style="fill:#fff;"/>
                <path d="M169.54,99.176L182.136,99.176C183.24,99.176 184.136,98.279 184.136,97.176C184.136,96.072 183.24,95.176 182.136,95.176L169.54,95.176C168.436,95.176 167.54,96.072 167.54,97.176C167.54,98.279 168.436,99.176 169.54,99.176Z" style="fill:#fff;"/>
                <path d="M84.479,99.078L97.075,99.078C98.179,99.078 99.075,98.182 99.075,97.078C99.075,95.975 98.179,95.078 97.075,95.078L84.479,95.078C83.375,95.078 82.479,95.975 82.479,97.078C82.479,98.182 83.375,99.078 84.479,99.078Z" style="fill:#fff;"/>
                <path d="M105.744,99.046L118.34,99.046C119.444,99.046 120.34,98.15 120.34,97.046C120.34,95.942 119.444,95.046 118.34,95.046L105.744,95.046C104.64,95.046 103.744,95.942 103.744,97.046C103.744,98.15 104.64,99.046 105.744,99.046Z" style="fill:#fff;"/>
            </g>
        </g>
    </g>
    <g id="strom28" serif:id="strom">
        <g>
            <path d="M95.935,170.02C97.479,169.995 98.749,169.888 99.867,170.618C103.168,172.772 105,178.478 105,184.324C105,190.527 102.666,197.451 98.674,198.454C97.397,198.775 97.223,198.504 96.217,198.504C91.37,198.504 87.435,192.15 87.435,184.324C87.435,176.499 91.089,170.097 95.935,170.02Z" style="fill:#3b7847;"/>
            <ellipse cx="98.093" cy="184.324" rx="6.907" ry="14.179" style="fill:#4db343;"/>
        </g>
        <path d="M96.217,191.105L96.217,208.678" style="fill:none;stroke:#4c4c4c;stroke-width:4px;"/>
    </g>
    <g id="strom29" serif:id="strom">
        <g>
            <path d="M119.539,175.219C121.823,175.183 123.703,175.024 125.356,176.103C130.241,179.292 132.952,187.734 132.952,196.384C132.952,205.561 129.498,215.807 123.591,217.29C121.703,217.765 121.444,217.364 119.957,217.364C112.785,217.364 106.962,207.963 106.962,196.384C106.962,184.805 112.369,175.333 119.539,175.219Z" style="fill:#3b7847;"/>
            <ellipse cx="122.732" cy="196.384" rx="10.219" ry="20.98" style="fill:#4db343;"/>
        </g>
        <path d="M119.957,206.417L119.957,232.417" style="fill:none;stroke:#4c4c4c;stroke-width:4px;"/>
    </g>
    <path d="M110,218.699C104.981,213.976 93.456,205 93.456,205L90,210L120.99,240L125,235C125,235 119.687,227.816 110,218.699Z" style="fill:#2d5836;"/>
    <g id="tunel-s-vlakem" serif:id="tunel s vlakem">
    </g>
    <g id="strom30" serif:id="strom">
    </g>
    <g id="hrad">
    </g>
    <g id="auta">
    </g>
    <g id="majak">
    </g>
    <g id="vetrna-elektr" serif:id="vetrna elektr">
    </g>
    <g id="osrov-pokladu" serif:id="osrov pokladu">
    </g>
</svg>

<svg xmlns="http://www.w3.org/2000/svg" xml:space="preserve" fill-rule="evenodd" stroke-linecap="round" stroke-linejoin="round" stroke-miterlimit="1.5" clip-rule="evenodd" viewBox="0 0 250 250"><path fill="none" d="M-750-250H250V750H-750z"/><path fill="#e2e1bf" d="M-596.3 358c-28.4-54-156-97-148.4-339.5 5-159 106-230.3 181.7-229.3 45.6.6 101.8 7.6 243 67.3 99 42 145.2 52.7 174 41.8 70.2-26.6 78.9-37.6 117.6-57.4 35.8-18.4 73-47 100.4-58 82.3-33 224.3 2.4 138 160-21.7 39.6-3 119.8-26.9 288.5-27 190-78.4 135.4-88.1 180-7 32.1 55.5 144.5 15 220-53 98.6-196.6 64.4-243 61.5-70-4.4-180.9 82-280 50-213.3-69-120.6-265.8-183.3-385Z"/><path fill="#589765" d="M-571 316.7c-48-26.4-127.8-54.8-159-198.6-30.8-142 33.5-287 159-322.3 41.3-11.6 127.3 7.5 260.4 62.2 93.4 38.3 136.9 48.1 164 38.2C-80.5-128.2 42.7-201.3 110-207c50.3-4.2 127.7 20.3 95 118.6-3.2 9.5-14.7 41.6-15 56.7-2 82.5-15.4 249.5-27.5 314.2C140.4 401 45 352 72.9 431.4c22.8 64.7 54.7 159 2.1 210-83.2 80.5-182 20.8-207.2 19.3-66-4-194.5 78.5-288 49.4-93.6-29-110-177.1-107.4-226.2 2.6-49-4.7-146-43.4-167.2Z"/><path fill="#8dcf86" d="M-496.1-3.5c-30-42 7.9-199.4-116.8-134.3-78 40.6-129.2 175.6-105.3 257 69 234.4 197.6 136 200.8 242.3 5.4 179.2 2 301.1 120 329.6 50.4 12.1 141.6 1 178-63.4 19.3-34.1 97.8-106 172-28.2C-24.9 623 11.5 632 37.1 610c28.2-24.3 22.6-64.8 7.2-85-22.4-29.6-46-64.7-36.7-108.3 21.2-98.3 79.8-62.6 100.5-107.9 44.4-97.2-160.1-135-230.5-74.1C-214.2 314-411 115.7-496-3.5Z"/><path fill="#3b7847" d="M3.8-1.8c1.6 0 2.9-.1 4 .6C11.4 1 13.3 7 13.3 13c0 6.4-2.4 13.6-6.6 14.6-1.3.3-1.5 0-2.5 0C-1 27.7-5 21.2-5 13S-1.2-1.7 3.8-1.8Z"/><ellipse cx="6" cy="13" fill="#4db343" rx="7.1" ry="14.7"/><path fill="none" stroke="#4c4c4c" stroke-width="4" d="M4 20v18.2"/><path fill="none" stroke="#2d5836" stroke-width="4" d="M10.2 135c-2-1.6-65.2 3.3-59-55C-46.2 55.6-22 38 10 38.7M-23.5-5.6c1-.9 1.8-31.7 36.7-22.8A28.5 28.5 0 0 1 34.6 4.1"/><path fill="none" stroke="#2d5836" stroke-width="4" d="M-60 31.9a63.6 63.6 0 0 1 0 74.7c-23.1 32.1-70.5 26.1-85 18-26.6-14.7-86.7-42-91.2 9.6-2.8 32.6 74 39.3 91.2 52.6 31 24.2 25 57.1 25 58.2 4 52.8-149.2 98.4-184.5-65m321.4 63.2c1.8 3.3 61.5-22.8 79.5 26.8 8.9 24.7-14.4 52.3-31.4 60-10.8 4.9-74 35.4-67.8-90"/><path fill="none" stroke="#2d5836" stroke-width="18.7" d="M-290 407.6c-8.6-3-40-11.2-40-11.2s4.4-12.6 2-25c-2.8-14.6-12.5-29.4-12-30 8-11.2 38.7-46.4 45-54.5 122.3-155.6 257.4 3.4 325 54.5 27.8 21 90.4 10.2 100-41.4 17.8-95.4-110.3-87.6-120-198.6C1.8 7.5 59.8-36.8 120-48.6c126.5-25 80.4-161.3-27.6-138-56 12-102.8 80.5-115.2 173.2-10.7 80.4-122 26-119.4-9"/><path fill="none" stroke="#000" stroke-width="4" d="M18.3 248V133"/><path fill="#737373" d="M-48.7 158.6V248h70v-89.4h-70Zm28 64.4h-21v20h21v-20Zm35 0h-21v20h21v-20Zm-35-30h-21v20h21v-20Zm35 0h-21v20h21v-20Zm-35-29.4h-21v20h21v-20Zm35 0h-21v20h21v-20Z"/><path fill="#d9d9d9" d="M-28.7 160.6V250h50v-89.4h-50Zm20 64.4h-15v20h15v-20Zm25 0h-15v20h15v-20Zm-25-30h-15v20h15v-20Zm25 0h-15v20h15v-20Zm-25-29.4h-15v20h15v-20Zm25 0h-15v20h15v-20Zm63 145.2V195l-43.5 11.6v104.2h43.5Z"/><path fill="#8c8c8c" d="M35.8 310.8V206.6h-19v104.2h19Z"/><path fill="#595959" d="M72.4 216.9v-9.5h-10v9.5h10Zm-13.1 0v-9.5h-9.9v9.5h10Zm13.2 12.2v-9.5h-10v9.5h10Zm-13.1 0v-9.5h-10v9.5h10Zm13.1 12.3v-9.5h-10v9.5h10Zm-13.1 0v-9.5h-10v9.5h10Zm13.1 12.2v-9.5h-10v9.5h10Zm-13.1 0v-9.5h-10v9.5h10Z"/><path fill="#8c0008" d="m16.7 206.8 19.1-.2L79.3 195h-21l-41.6 11.8Z"/><path fill="#666" d="M190-25c0-1-24.7-6.4-46.3-6.4C76.2-31.4 21.3 21 21.3 85.7c0 64.7 58 110.6 122.5 117.2a463.7 463.7 0 0 0 29.3 2.3s5.2-47.5 9.3-100.2c4-51.5 6.9-108 7.6-130Z"/><path fill="#8c8c8c" d="M190-25c0-1-24.7-6.4-46.3-6.4C76.2-31.4 21.3 21 21.3 85.7c0 64.7 55.4 108.6 122.5 117.2 17.2 2.2 29.3 2.3 29.3 2.3s1.2-10.2 1-10.2C69.9 191.4 29.2 136.9 30 85 31.1 23.8 87.4-42.9 189.6-15c.2 0 .3-6 .4-10Z"/><path fill="#d9d9d9" d="M95.9-10.6h75.3v25H95.9z"/><path fill="#8c8c8c" d="M76.2-10.6h19.7v25H76.2z"/><path fill="#595959" d="M97.6-5.6h4.7V9.1h-4.7zm36.8 0h4.7V9.1h-4.7zm-18.4 0h4.7V9.1H116zm36.8 0h4.7V9.1h-4.7zm-49.1 0h4.7V9.1h-4.7zm36.8 0h4.7V9.1h-4.7zm-18.4 0h4.7V9.1h-4.7zm36.8 0h4.7V9.1h-4.7zm-49 0h4.7V9.1h-4.7zm36.8 0h4.7V9.1h-4.7zm-18.4 0h4.7V9.1h-4.7zm36.8 0h4.7V9.1h-4.7z"/><path fill="#8c8c8c" d="M121.6-7.8h10.6v25h-10.6z"/><path fill="#fff" d="M135.8 17.2V-5h16.5v22.2h3.5v-25h-23.5v25h3.5Z"/><path fill="#d9d9d9" d="M60 31.3h40v10H60z"/><path fill="#8c8c8c" d="M40 31.3h20v10H40z"/><path fill="#d9d9d9" d="M65-18.7h20v50H65z"/><path fill="#8c8c8c" d="M55-18.7h10v50H55z"/><path fill="#595959" d="M72.3 16.3h6.2v15h-6.2z"/><path fill="#fff" d="M60 121.2h120.1a2 2 0 0 0 0-4H60a2 2 0 0 0 0 4ZM63.2 77h120.2a2 2 0 0 0 0-4H63.2a2 2 0 0 0 0 4Zm0 22.2h12.6a2 2 0 0 0 0-4H63.2a2 2 0 0 0 0 4Zm63.8-.1h12.6a2 2 0 0 0 0-4H127a2 2 0 0 0 0 4Zm21.3 0h12.6a2 2 0 0 0 0-4h-12.6a2 2 0 0 0 0 4Zm21.2.1h12.6a2 2 0 0 0 0-4h-12.6a2 2 0 0 0 0 4Zm-85-.2H97a2 2 0 0 0 0-4H84.5a2 2 0 0 0 0 4Zm21.2 0h12.6a2 2 0 0 0 0-4h-12.6a2 2 0 0 0 0 4Z"/><path fill="#3b7847" d="M96 170c1.5 0 2.7-.1 3.9.6 3.3 2.2 5.1 7.9 5.1 13.7 0 6.2-2.3 13.2-6.3 14.2-1.3.3-1.5 0-2.5 0-4.8 0-8.8-6.3-8.8-14.2 0-7.8 3.7-14.2 8.5-14.3Z"/><ellipse cx="98.1" cy="184.3" fill="#4db343" rx="6.9" ry="14.2"/><path fill="none" stroke="#4c4c4c" stroke-width="4" d="M96.2 191.1v17.6"/><path fill="#3b7847" d="M119.5 175.2c2.3 0 4.2-.2 5.9.9 4.8 3.2 7.6 11.6 7.6 20.3 0 9.2-3.5 19.4-9.4 20.9-1.9.5-2.2 0-3.6 0-7.2 0-13-9.3-13-21 0-11.5 5.4-21 12.5-21Z"/><ellipse cx="122.7" cy="196.4" fill="#4db343" rx="10.2" ry="21"/><path fill="none" stroke="#4c4c4c" stroke-width="4" d="M120 206.4v26"/><path fill="#2d5836" d="M110 218.7C105 214 93.5 205 93.5 205l-3.5 5 31 30 4-5s-5.3-7.2-15-16.3Z"/></svg>
